build/images/icons/heart-small.svg

<svg width="20" height="19" viewBox="0 0 20 19" fill="none" xmlns="http://www.w3.org/2000/svg">
<path d="M10 6.85744C10.195 5.9241 11.2892 1.6666 14.485 1.6666C16.335 1.6666 18.3333 2.9591 18.3333 5.83577C18.3333 9.0916 15.3108 12.8941 10 16.3599C4.68917 12.8941 1.66667 9.0916 1.66667 5.83577C1.66667 2.93244 3.64083 1.66494 5.48083 1.66494C8.75 1.66494 9.76833 5.9366 10 6.85744ZM0 5.83577C0 9.22577 2.55 13.7366 10 18.3333C17.45 13.7366 20 9.22577 20 5.83577C20 -0.799231 11.96 -1.68756 10 2.7216C8.05167 -1.6634 0 -0.836731 0 5.83577Z" fill="#2F3035"/>
</svg>

<svg width="20" height="19" fill="none" xmlns="http://www.w3.org/2000/svg"><path d="M10 6.857c.195-.933 1.29-5.19 4.485-5.19 1.85 0 3.848 1.292 3.848 4.169 0 3.256-3.022 7.058-8.333 10.524-5.31-3.466-8.333-7.268-8.333-10.524 0-2.904 1.974-4.171 3.814-4.171 3.269 0 4.287 4.272 4.519 5.192zM0 5.836c0 3.39 2.55 7.9 10 12.497 7.45-4.596 10-9.107 10-12.497C20-.8 11.96-1.688 10 2.722 8.052-1.663 0-.837 0 5.836z" fill="#2F3035"/></svg>
